X:1
T:Cock O' The North
M:6/8
L:1/8
K:A
 d| cdc cBA| cde f2 e| cdc cBA| B3 e2 d| cdc cBA| Ace f2 e| cec BdB|\
 A3- A2 e| a2 e f2 e| a2 e f2 e| c2 e cBA| B3 c2 e| a2 e f2 e| a2 e f2 e|\
 cec BdB| A3- A2||
